public/LogoPrincipal.svg

<svg viewBox="0 0 700 700" xmlns="http://www.w3.org/2000/svg" xml:space="preserve" style="fill-rule:evenodd;clip-rule:evenodd;stroke-linejoin:round;stroke-miterlimit:2"><path style="fill:none" d="M-776.155-31.123h964.486v736.828h-964.486z" transform="matrix(.72577 0 0 .95002 563.314 29.5674)"/><path d="M0-17.794c0-6 .286-11.932.818-17.794-61.748-28.462-106.042-88.298-112.457-159.079-66.861 30.819-113.275 98.421-113.275 176.873 0 107.511 87.156 194.667 194.667 194.667 41.895 0 80.697-13.237 112.457-35.754C32.467 105.854 0 47.823 0-17.794" style="fill:#2a38b2;fill-rule:nonzero" transform="translate(267.78613 465.12694)"/><path d="M0-371.54c-6.415 70.781-50.71 130.617-112.457 159.079.531 5.862.818 11.794.818 17.794 0 65.617-32.467 123.648-82.21 158.913C-162.089-13.237-123.287 0-81.392 0 26.119 0 113.274-87.156 113.274-194.667c0-78.452-46.413-146.054-113.274-176.873" style="fill:#2a38b2;fill-rule:nonzero" transform="translate(543.84663 641.99966)"/><path d="M0-141.119c0-6-.286-11.932-.818-17.794-24.766 11.416-52.332 17.794-81.392 17.794-29.059 0-56.626-6.378-81.392-17.794-.531 5.862-.818 11.794-.818 17.794 0 65.617 32.467 123.648 82.21 158.913C-32.467-17.471 0-75.502 0-141.119" style="fill:#0080f0;fill-rule:nonzero" transform="translate(432.20643 588.45174)"/><path d="M0 230.42c31.76-22.516 70.562-35.753 112.457-35.753 29.059 0 56.626 6.378 81.392 17.793.531-5.861.818-11.793.818-17.793C194.667 87.155 107.511 0 0 0s-194.667 87.155-194.667 194.667c0 6 .287 11.932.818 17.793 24.766-11.415 52.333-17.793 81.392-17.793 41.895 0 80.697 13.237 112.457 35.753" style="fill:#2a38b2;fill-rule:nonzero" transform="translate(349.99728 57.99957)"/><path d="M-15.532-1.354C-.258 55.096 38.988 99.819 89.044 123.559c-27.386 27.671-63.313 47.42-104.576 54.668-28.621 5.026-56.876 3.513-83.244-3.446-5.924-70.823 27.351-137.42 83.244-176.135" style="fill:#0080f0;fill-rule:nonzero" transform="scale(1 -1) rotate(9.96154 2583.12677 1414.68836)"/><path d="M35.524-144.334c36.074 42.046 89.546 68.142 148.027 68.026-22.644 64.109-78.14 113.735-148.027 126.653C21.873 26.738 12.979-.124 10.298-29.059c-3.865-41.716 5.736-81.574 25.226-115.275" style="fill:#0080f0;fill-rule:nonzero" transform="scale(1 -1) rotate(-84.70669 113.73418 -388.85444)"/><path d="M0-158.913c45.195 32.041 76.113 82.878 81.392 141.12C56.626-6.377 29.059 0 0 0c-29.059 0-56.626-6.377-81.392-17.793C-76.113-76.035-45.195-126.872 0-158.913" style="fill:#fff;fill-rule:nonzero" transform="matrix(-1 0 0 1 349.99728 447.33196)"/><path d="M0-620c-28.702 0-56.555 5.625-82.785 16.72-25.326 10.712-48.068 26.044-67.593 45.569-19.525 19.525-34.857 42.266-45.569 67.593-11.094 26.23-16.72 54.083-16.72 82.785 0 2.311.04 4.645.119 6.993-31.563 16.85-58.389 41.384-78.081 71.531-22.567 34.548-34.495 74.709-34.495 116.142 0 28.702 5.626 56.555 16.72 82.785 10.712 25.327 26.044 48.068 45.569 67.593 19.525 19.526 42.267 34.857 67.593 45.569C-169.012-5.625-141.159 0-112.457 0-72.325 0-33.705-11.072 0-32.134 33.705-11.072 72.325 0 112.457 0c28.702 0 56.555-5.625 82.785-16.72 25.326-10.712 48.068-26.043 67.593-45.569 19.525-19.525 34.857-42.266 45.569-67.593 11.094-26.23 16.72-54.083 16.72-82.785 0-41.433-11.928-81.594-34.495-116.142-19.691-30.147-46.518-54.681-78.081-71.531.079-2.348.119-4.682.119-6.993 0-28.702-5.625-56.555-16.72-82.785-10.712-25.327-26.044-48.068-45.569-67.593-19.525-19.525-42.267-34.857-67.593-45.569C56.555-614.375 28.702-620 0-620m0 18c107.511 0 194.667 87.155 194.667 194.667 0 6-.287 11.932-.818 17.793 66.861 30.819 113.275 98.421 113.275 176.873C307.124-105.155 219.968-18 112.457-18 70.562-18 31.76-31.237 0-53.753-31.76-31.237-70.562-18-112.457-18c-107.511 0-194.667-87.155-194.667-194.667 0-78.452 46.414-146.054 113.275-176.873-.531-5.861-.818-11.793-.818-17.793C-194.667-514.845-107.511-602 0-602" style="fill:#fff;fill-rule:nonzero" transform="translate(349.99728 659.99963)"/></svg>

<?xml version="1.0" encoding="UTF-8" standalone="no"?>
<!DOCTYPE svg PUBLIC "-//W3C//DTD SVG 1.1//EN" "http://www.w3.org/Graphics/SVG/1.1/DTD/svg11.dtd">
<svg width="100%" height="100%" viewBox="0 0 700 700" version="1.1" xmlns="http://www.w3.org/2000/svg" xmlns:xlink="http://www.w3.org/1999/xlink" xml:space="preserve" xmlns:serif="http://www.serif.com/" style="fill-rule:evenodd;clip-rule:evenodd;stroke-linejoin:round;stroke-miterlimit:2;">
    <g id="SoloLogo" transform="matrix(0.725775,0,0,0.950018,563.314,29.5674)">
        <rect x="-776.155" y="-31.123" width="964.486" height="736.828" style="fill:none;"/>
        <g transform="matrix(1.37784,0,0,1.05261,1010.98,-171.371)">
            <g transform="matrix(1,0,0,1,-1029.27,598.366)">
                <path d="M0,-17.794C0,-23.794 0.286,-29.726 0.818,-35.588C-60.93,-64.05 -105.224,-123.886 -111.639,-194.667C-178.5,-163.848 -224.914,-96.246 -224.914,-17.794C-224.914,89.717 -137.758,176.873 -30.247,176.873C11.648,176.873 50.45,163.636 82.21,141.119C32.467,105.854 0,47.823 0,-17.794" style="fill:rgb(42,56,178);fill-rule:nonzero;"/>
            </g>
            <g transform="matrix(1,0,0,1,-753.21,775.239)">
                <path d="M0,-371.54C-6.415,-300.759 -50.71,-240.923 -112.457,-212.461C-111.926,-206.599 -111.639,-200.667 -111.639,-194.667C-111.639,-129.05 -144.106,-71.019 -193.849,-35.754C-162.089,-13.237 -123.287,0 -81.392,0C26.119,0 113.274,-87.156 113.274,-194.667C113.274,-273.119 66.861,-340.721 0,-371.54" style="fill:rgb(42,56,178);fill-rule:nonzero;"/>
            </g>
            <g transform="matrix(1,0,0,1,-864.85,721.691)">
                <path d="M0,-141.119C0,-147.119 -0.286,-153.051 -0.818,-158.913C-25.584,-147.497 -53.15,-141.119 -82.21,-141.119C-111.269,-141.119 -138.836,-147.497 -163.602,-158.913C-164.133,-153.051 -164.42,-147.119 -164.42,-141.119C-164.42,-75.502 -131.953,-17.471 -82.21,17.794C-32.467,-17.471 0,-75.502 0,-141.119" style="fill:rgb(0,128,240);fill-rule:nonzero;"/>
            </g>
            <g transform="matrix(1,0,0,1,-947.059,191.238)">
                <path d="M0,230.42C31.76,207.904 70.562,194.667 112.457,194.667C141.516,194.667 169.083,201.045 193.849,212.46C194.38,206.599 194.667,200.667 194.667,194.667C194.667,87.155 107.511,0 0,0C-107.511,0 -194.667,87.155 -194.667,194.667C-194.667,200.667 -194.38,206.599 -193.849,212.46C-169.083,201.045 -141.516,194.667 -112.457,194.667C-70.562,194.667 -31.76,207.904 0,230.42" style="fill:rgb(42,56,178);fill-rule:nonzero;"/>
            </g>
            <g transform="matrix(0.984924,-0.172987,-0.172987,-0.984924,-1013.39,558.758)">
                <path d="M-15.532,-1.354C-0.258,55.096 38.988,99.819 89.044,123.559C61.658,151.23 25.731,170.979 -15.532,178.227C-44.153,183.253 -72.408,181.74 -98.776,174.781C-104.7,103.958 -71.425,37.361 -15.532,-1.354" style="fill:rgb(0,128,240);fill-rule:nonzero;"/>
            </g>
            <g transform="matrix(0.0922543,0.995735,0.995735,-0.0922543,-806.618,372.97)">
                <path d="M35.524,-144.334C71.598,-102.288 125.07,-76.192 183.551,-76.308C160.907,-12.199 105.411,37.427 35.524,50.345C21.873,26.738 12.979,-0.124 10.298,-29.059C6.433,-70.775 16.034,-110.633 35.524,-144.334" style="fill:rgb(0,128,240);fill-rule:nonzero;"/>
            </g>
            <g transform="matrix(-1,0,0,1,-947.059,580.571)">
                <path d="M0,-158.913C45.195,-126.872 76.113,-76.035 81.392,-17.793C56.626,-6.377 29.059,0 0,0C-29.059,0 -56.626,-6.377 -81.392,-17.793C-76.113,-76.035 -45.195,-126.872 0,-158.913" style="fill:white;fill-rule:nonzero;"/>
            </g>
        </g>
    </g>
</svg>
